images/upgrade/upgrade-magic-logo.svg

<svg width="336" height="219" viewBox="0 0 336 219" fill="none" xmlns="http://www.w3.org/2000/svg">
<mask id="mask0_2561_1199" style="mask-type:alpha" maskUnits="userSpaceOnUse" x="0" y="0" width="336" height="219">
<path d="M2.86133 109.5L84 188.827L110.602 162.82L112 161.453L113.398 162.82L168 216.202L222.602 162.82L224 161.453L225.398 162.82L252 188.827L333.14 109.5L224 2.79688L169.398 56.1797L168 57.5469L166.602 56.1797L112 2.79688L2.86133 109.5ZM113.367 53.29L168 104.478L222.633 53.29L224.029 51.9814L225.398 53.3203L281.398 108.07L282.861 109.5L281.398 110.93L253.398 138.305L252 139.672L250.602 138.305L224 112.297L169.398 165.68L168 167.047L166.602 165.68L112 112.297L85.3984 138.305L84 139.672L82.6016 138.305L54.6016 110.93L53.1387 109.5L54.6016 108.07L110.602 53.3203L111.971 51.9814L113.367 53.29Z" stroke="black" stroke-width="4"/>
</mask>
<g mask="url(#mask0_2561_1199)">
<rect y="-59" width="336" height="337" fill="#AC8F4D"/>
</g>
</svg>

<svg width="336" height="219" fill="none" xmlns="http://www.w3.org/2000/svg"><mask id="a" style="mask-type:alpha" maskUnits="userSpaceOnUse" x="0" y="0" width="336" height="219"><path d="M2.861 109.5L84 188.827l26.602-26.007 1.398-1.367 1.398 1.367L168 216.202l54.602-53.382 1.398-1.367 1.398 1.367L252 188.827l81.14-79.327L224 2.797 169.398 56.18 168 57.547l-1.398-1.367L112 2.797 2.861 109.5zm110.506-56.21L168 104.478l54.633-51.188 1.396-1.309 1.369 1.34 56 54.749 1.463 1.43-1.463 1.43-28 27.375-1.398 1.367-1.398-1.367L224 112.297l-54.602 53.383-1.398 1.367-1.398-1.367L112 112.297l-26.602 26.008L84 139.672l-1.398-1.367-28-27.375-1.463-1.43 1.463-1.43 56-54.75 1.369-1.339 1.396 1.309z" stroke="#000" stroke-width="4"/></mask><g mask="url(#a)"><path fill="#AC8F4D" d="M0-59h336v337H0z"/></g></svg>
